!!!OTL: Xiao ding xiang
!!!ARE: Asia, China,ÿHenan, Sanmenxia
!! IV, 171
!!!SCT: C1671
!!!YEM: Copyright 1995, estate of Helmut Schaffrath.
**kern
*ICvox
*Ivox
!! Mixed meters:  2/4; 3/4
*M3/4
*k[]
*C:
{[2ee
=1
8ee]
8ee
8dd
8cc
=2
8dd
8dd
4cc}
=3
{8e
8a
8a
8e
=4
8a
8a
4g}
=5
{8ee
8dd
8ee
8dd
8ee
16ee
16dd
=6
*M2/4
8ee
8dd
4cc}
=7
{8e
8a
8a
8e
=8
8a
8a
4g}
=9
{8ee
8dd
4cc
=10
8dd
16b
16a
4g}
=11
{8ee
8dd
4cc
=12
8dd
8dd
4ee}
=13
{8b
8a
8b
8a
=14
8a
8a
4g}
=15
{[2ee
=16
2ee]}
=17
{8b
8a
8b
8a
=18
8a
8a
8g
8e
=19
2d}
==
!!!AGN: Xiaodiao
!!!AMT: irregular
!!!AIN: vox
!!!EED: Helmut Schaffrath
!!!EEV: 1.0
*-
!!!ONB: Tied note syntax fixed by Craig Sapp, 2004/05/03/
